static/img/kroki/908cc5a2fa536f495c242a15ce3f0834.svg

<?xml version="1.0" encoding="us-ascii" standalone="no"?><svg xmlns="http://www.w3.org/2000/svg" xmlns:xlink="http://www.w3.org/1999/xlink" contentStyleType="text/css" height="451px" preserveAspectRatio="none" style="width:982px;height:451px;" version="1.1" viewBox="0 0 982 451" width="982px" zoomAndPan="magnify"><defs/><g><!--class aws_apigateway_authorizer--><g id="elem_aws_apigateway_authorizer"><rect codeLine="23" fill="#3D176E" height="39.7891" id="aws_apigateway_authorizer" rx="2.5" ry="2.5" style="stroke:#000D19;stroke-width:0.5;" width="276" x="270.8" y="306.37"/><ellipse cx="285.8" cy="326.2645" fill="#ADD1B2" rx="11" ry="11" style="stroke:#181818;stroke-width:1.0;"/><path d="M288.7688,331.9052 Q288.1906,332.202 287.55,332.3427 Q286.9094,332.4989 286.2063,332.4989 Q283.7063,332.4989 282.3781,330.8583 Q281.0656,329.202 281.0656,326.077 Q281.0656,322.952 282.3781,321.2958 Q283.7063,319.6395 286.2063,319.6395 Q286.9094,319.6395 287.55,319.7958 Q288.2063,319.952 288.7688,320.2489 L288.7688,322.9677 Q288.1438,322.3895 287.55,322.1239 Q286.9563,321.8427 286.3313,321.8427 Q284.9875,321.8427 284.3,322.9208 Q283.6125,323.9833 283.6125,326.077 Q283.6125,328.1708 284.3,329.2489 Q284.9875,330.3114 286.3313,330.3114 Q286.9563,330.3114 287.55,330.0458 Q288.1438,329.7645 288.7688,329.1864 L288.7688,331.9052 Z " fill="#000000"/><text fill="#D9B8FF" font-family="Helvetica" font-size="17" lengthAdjust="spacing" textLength="234" x="304.8" y="332.1498">aws_apigateway_authorizer</text></g><!--class aws_apigateway_deployment--><g id="elem_aws_apigateway_deployment"><rect codeLine="26" fill="#3D176E" height="39.7891" id="aws_apigateway_deployment" rx="2.5" ry="2.5" style="stroke:#000D19;stroke-width:0.5;" width="290" x="87.8" y="206.58"/><ellipse cx="102.8" cy="226.4745" fill="#ADD1B2" rx="11" ry="11" style="stroke:#181818;stroke-width:1.0;"/><path d="M105.7688,232.1152 Q105.1906,232.412 104.55,232.5527 Q103.9094,232.7089 103.2063,232.7089 Q100.7063,232.7089 99.3781,231.0683 Q98.0656,229.412 98.0656,226.287 Q98.0656,223.162 99.3781,221.5058 Q100.7063,219.8495 103.2063,219.8495 Q103.9094,219.8495 104.55,220.0058 Q105.2063,220.162 105.7688,220.4589 L105.7688,223.1777 Q105.1438,222.5995 104.55,222.3339 Q103.9563,222.0527 103.3313,222.0527 Q101.9875,222.0527 101.3,223.1308 Q100.6125,224.1933 100.6125,226.287 Q100.6125,228.3808 101.3,229.4589 Q101.9875,230.5214 103.3313,230.5214 Q103.9563,230.5214 104.55,230.2558 Q105.1438,229.9745 105.7688,229.3964 L105.7688,232.1152 Z " fill="#000000"/><text fill="#D9B8FF" font-family="Helvetica" font-size="17" lengthAdjust="spacing" textLength="248" x="121.8" y="232.3598">aws_apigateway_deployment</text></g><!--class aws_apigateway_resource--><g id="elem_aws_apigateway_resource"><rect codeLine="29" fill="#3D176E" height="39.7891" id="aws_apigateway_resource" rx="2.5" ry="2.5" style="stroke:#000D19;stroke-width:0.5;" width="261" x="413.3" y="206.58"/><ellipse cx="428.3" cy="226.4745" fill="#ADD1B2" rx="11" ry="11" style="stroke:#181818;stroke-width:1.0;"/><path d="M431.2687,232.1152 Q430.6906,232.412 430.05,232.5527 Q429.4094,232.7089 428.7062,232.7089 Q426.2062,232.7089 424.8781,231.0683 Q423.5656,229.412 423.5656,226.287 Q423.5656,223.162 424.8781,221.5058 Q426.2062,219.8495 428.7062,219.8495 Q429.4094,219.8495 430.05,220.0058 Q430.7062,220.162 431.2687,220.4589 L431.2687,223.1777 Q430.6437,222.5995 430.05,222.3339 Q429.4562,222.0527 428.8312,222.0527 Q427.4875,222.0527 426.8,223.1308 Q426.1125,224.1933 426.1125,226.287 Q426.1125,228.3808 426.8,229.4589 Q427.4875,230.5214 428.8312,230.5214 Q429.4562,230.5214 430.05,230.2558 Q430.6437,229.9745 431.2687,229.3964 L431.2687,232.1152 Z " fill="#000000"/><text fill="#D9B8FF" font-family="Helvetica" font-size="17" lengthAdjust="spacing" textLength="219" x="447.3" y="232.3598">aws_apigateway_resource</text></g><!--class aws_apigateway_rest_api--><g id="elem_aws_apigateway_rest_api"><rect codeLine="32" fill="#3D176E" height="39.7891" id="aws_apigateway_rest_api" rx="2.5" ry="2.5" style="stroke:#000D19;stroke-width:0.5;" width="256" x="415.8" y="106.79"/><ellipse cx="430.8" cy="126.6845" fill="#ADD1B2" rx="11" ry="11" style="stroke:#181818;stroke-width:1.0;"/><path d="M433.7687,132.3252 Q433.1906,132.622 432.55,132.7627 Q431.9094,132.9189 431.2062,132.9189 Q428.7062,132.9189 427.3781,131.2783 Q426.0656,129.622 426.0656,126.497 Q426.0656,123.372 427.3781,121.7158 Q428.7062,120.0595 431.2062,120.0595 Q431.9094,120.0595 432.55,120.2158 Q433.2062,120.372 433.7687,120.6689 L433.7687,123.3877 Q433.1437,122.8095 432.55,122.5439 Q431.9562,122.2627 431.3312,122.2627 Q429.9875,122.2627 429.3,123.3408 Q428.6125,124.4033 428.6125,126.497 Q428.6125,128.5908 429.3,129.6689 Q429.9875,130.7314 431.3312,130.7314 Q431.9562,130.7314 432.55,130.4658 Q433.1437,130.1845 433.7687,129.6064 L433.7687,132.3252 Z " fill="#000000"/><text fill="#D9B8FF" font-family="Helvetica" font-size="17" lengthAdjust="spacing" textLength="214" x="449.8" y="132.5698">aws_apigateway_rest_api</text></g><!--class aws_lambda_function--><g id="elem_aws_lambda_function"><rect codeLine="35" fill="#3D176E" height="39.7891" id="aws_lambda_function" rx="2.5" ry="2.5" style="stroke:#000D19;stroke-width:0.5;" width="224" x="487.8" y="406.16"/><ellipse cx="502.8" cy="426.0545" fill="#ADD1B2" rx="11" ry="11" style="stroke:#181818;stroke-width:1.0;"/><path d="M505.7687,431.6952 Q505.1906,431.992 504.55,432.1327 Q503.9094,432.2889 503.2062,432.2889 Q500.7062,432.2889 499.3781,430.6483 Q498.0656,428.992 498.0656,425.867 Q498.0656,422.742 499.3781,421.0858 Q500.7062,419.4295 503.2062,419.4295 Q503.9094,419.4295 504.55,419.5858 Q505.2062,419.742 505.7687,420.0389 L505.7687,422.7577 Q505.1437,422.1795 504.55,421.9139 Q503.9562,421.6327 503.3312,421.6327 Q501.9875,421.6327 501.3,422.7108 Q500.6125,423.7733 500.6125,425.867 Q500.6125,427.9608 501.3,429.0389 Q501.9875,430.1014 503.3312,430.1014 Q503.9562,430.1014 504.55,429.8358 Q505.1437,429.5545 505.7687,428.9764 L505.7687,431.6952 Z " fill="#000000"/><text fill="#D9B8FF" font-family="Helvetica" font-size="17" lengthAdjust="spacing" textLength="182" x="521.8" y="431.9398">aws_lambda_function</text></g><!--class aws_vpc_endpoint--><g id="elem_aws_vpc_endpoint"><rect codeLine="38" fill="#3D176E" height="39.7891" id="aws_vpc_endpoint" rx="2.5" ry="2.5" style="stroke:#000D19;stroke-width:0.5;" width="195" x="780.3" y="206.58"/><ellipse cx="795.3" cy="226.4745" fill="#ADD1B2" rx="11" ry="11" style="stroke:#181818;stroke-width:1.0;"/><path d="M798.2688,232.1152 Q797.6906,232.412 797.05,232.5527 Q796.4094,232.7089 795.7063,232.7089 Q793.2063,232.7089 791.8781,231.0683 Q790.5656,229.412 790.5656,226.287 Q790.5656,223.162 791.8781,221.5058 Q793.2063,219.8495 795.7063,219.8495 Q796.4094,219.8495 797.05,220.0058 Q797.7063,220.162 798.2688,220.4589 L798.2688,223.1777 Q797.6438,222.5995 797.05,222.3339 Q796.4563,222.0527 795.8313,222.0527 Q794.4875,222.0527 793.8,223.1308 Q793.1125,224.1933 793.1125,226.287 Q793.1125,228.3808 793.8,229.4589 Q794.4875,230.5214 795.8313,230.5214 Q796.4563,230.5214 797.05,230.2558 Q797.6438,229.9745 798.2688,229.3964 L798.2688,232.1152 Z " fill="#000000"/><text fill="#D9B8FF" font-family="Helvetica" font-size="17" lengthAdjust="spacing" textLength="153" x="814.3" y="232.3598">aws_vpc_endpoint</text></g><!--class aws_waf_web_acl--><g id="elem_aws_waf_web_acl"><rect codeLine="41" fill="#3D176E" height="39.7891" id="aws_waf_web_acl" rx="2.5" ry="2.5" style="stroke:#000D19;stroke-width:0.5;" width="191" x="448.3" y="7"/><ellipse cx="463.3" cy="26.8945" fill="#ADD1B2" rx="11" ry="11" style="stroke:#181818;stroke-width:1.0;"/><path d="M466.2687,32.5352 Q465.6906,32.832 465.05,32.9727 Q464.4094,33.1289 463.7062,33.1289 Q461.2062,33.1289 459.8781,31.4883 Q458.5656,29.832 458.5656,26.707 Q458.5656,23.582 459.8781,21.9258 Q461.2062,20.2695 463.7062,20.2695 Q464.4094,20.2695 465.05,20.4258 Q465.7062,20.582 466.2687,20.8789 L466.2687,23.5977 Q465.6437,23.0195 465.05,22.7539 Q464.4562,22.4727 463.8312,22.4727 Q462.4875,22.4727 461.8,23.5508 Q461.1125,24.6133 461.1125,26.707 Q461.1125,28.8008 461.8,29.8789 Q462.4875,30.9414 463.8312,30.9414 Q464.4562,30.9414 465.05,30.6758 Q465.6437,30.3945 466.2687,29.8164 L466.2687,32.5352 Z " fill="#000000"/><text fill="#D9B8FF" font-family="Helvetica" font-size="17" lengthAdjust="spacing" textLength="149" x="482.3" y="32.7798">aws_waf_web_acl</text></g><!--link aws_apigateway_authorizer to aws_lambda_function--><g id="link_aws_apigateway_authorizer_aws_lambda_function"><path codeLine="44" d="M446.53,346.59 C480.02,363.73 523.3399,385.9045 556.7999,403.0445 " fill="none" id="aws_apigateway_authorizer-to-aws_lambda_function" style="stroke:#1A83AF;stroke-width:2.0;"/><polygon fill="#1A83AF" points="562.14,405.78,555.9535,398.1167,557.6899,403.5004,552.3061,405.2368,562.14,405.78" style="stroke:#1A83AF;stroke-width:2.0;"/></g><!--link aws_apigateway_resource to aws_apigateway_authorizer--><g id="link_aws_apigateway_resource_aws_apigateway_authorizer"><path codeLine="45" d="M517.12,246.8 C493.46,263.94 463.9183,285.329 440.2683,302.469 " fill="none" id="aws_apigateway_resource-to-aws_apigateway_authorizer" style="stroke:#1A83AF;stroke-width:2.0;"/><polygon fill="#1A83AF" points="435.41,305.99,445.0447,303.9474,439.4586,303.0559,440.3501,297.4697,435.41,305.99" style="stroke:#1A83AF;stroke-width:2.0;"/></g><!--link aws_apigateway_resource to aws_lambda_function--><g id="link_aws_apigateway_resource_aws_lambda_function"><path codeLine="46" d="M549.27,246.78 C559.97,284.55 581.9442,362.0673 592.6642,399.8973 " fill="none" id="aws_apigateway_resource-to-aws_lambda_function" style="stroke:#1A83AF;stroke-width:2.0;"/><polygon fill="#1A83AF" points="594.3,405.67,595.6947,395.9204,592.9368,400.8594,587.9978,398.1015,594.3,405.67" style="stroke:#1A83AF;stroke-width:2.0;"/></g><!--link aws_apigateway_rest_api to aws_apigateway_authorizer--><g id="link_aws_apigateway_rest_api_aws_apigateway_authorizer"><path codeLine="47" d="M415.51,130.99 C290.59,137.24 113.34,155.19 69.8,206.58 C6,281.87 144.6411,308.9272 264.3811,318.9972 " fill="none" id="aws_apigateway_rest_api-to-aws_apigateway_authorizer" style="stroke:#1A83AF;stroke-width:2.0;"/><polygon fill="#1A83AF" points="270.36,319.5,261.7269,314.7598,265.3776,319.081,261.0564,322.7317,270.36,319.5" style="stroke:#1A83AF;stroke-width:2.0;"/></g><!--link aws_apigateway_rest_api to aws_apigateway_deployment--><g id="link_aws_apigateway_rest_api_aws_apigateway_deployment"><path codeLine="48" d="M482.35,147.01 C427.92,164.12 354.5736,187.18 300.1036,204.31 " fill="none" id="aws_apigateway_rest_api-to-aws_apigateway_deployment" style="stroke:#1A83AF;stroke-width:2.0;"/><polygon fill="#1A83AF" points="294.38,206.11,304.1655,207.2258,299.1497,204.61,301.7655,199.5942,294.38,206.11" style="stroke:#1A83AF;stroke-width:2.0;"/></g><!--link aws_apigateway_rest_api to aws_apigateway_resource--><g id="link_aws_apigateway_rest_api_aws_apigateway_resource"><path codeLine="49" d="M543.8,147.01 C543.8,164.15 543.8,183.07 543.8,200.2 " fill="none" id="aws_apigateway_rest_api-to-aws_apigateway_resource" style="stroke:#1A83AF;stroke-width:2.0;"/><polygon fill="#1A83AF" points="543.8,206.2,547.8,197.2,543.8,201.2,539.8,197.2,543.8,206.2" style="stroke:#1A83AF;stroke-width:2.0;"/></g><!--link aws_apigateway_rest_api to aws_lambda_function--><g id="link_aws_apigateway_rest_api_aws_lambda_function"><path codeLine="50" d="M613.35,146.99 C642.95,159.03 674.56,177.87 691.8,206.58 C733.2,275.57 661.8867,362.2924 623.8967,401.4724 " fill="none" id="aws_apigateway_rest_api-to-aws_lambda_function" style="stroke:#1A83AF;stroke-width:2.0;"/><polygon fill="#1A83AF" points="619.72,405.78,628.8568,402.1032,623.2006,402.1904,623.1134,396.5342,619.72,405.78" style="stroke:#1A83AF;stroke-width:2.0;"/></g><!--link aws_apigateway_rest_api to aws_vpc_endpoint--><g id="link_aws_apigateway_rest_api_aws_vpc_endpoint"><path codeLine="51" d="M609.78,147.01 C668.24,164.12 747.4018,187.2939 805.9018,204.4239 " fill="none" id="aws_apigateway_rest_api-to-aws_vpc_endpoint" style="stroke:#1A83AF;stroke-width:2.0;"/><polygon fill="#1A83AF" points="811.66,206.11,804.1468,199.742,806.8615,204.7049,801.8986,207.4196,811.66,206.11" style="stroke:#1A83AF;stroke-width:2.0;"/></g><!--link aws_waf_web_acl to aws_apigateway_rest_api--><g id="link_aws_waf_web_acl_aws_apigateway_rest_api"><path codeLine="52" d="M543.8,47.22 C543.8,64.36 543.8,83.28 543.8,100.41 " fill="none" id="aws_waf_web_acl-to-aws_apigateway_rest_api" style="stroke:#1A83AF;stroke-width:2.0;"/><polygon fill="#1A83AF" points="543.8,106.41,547.8,97.41,543.8,101.41,539.8,97.41,543.8,106.41" style="stroke:#1A83AF;stroke-width:2.0;"/></g><!--SRC=[dP9FIyD04CNl-HGBFHSQYxQz2BLGz5B4UXC9a-niipJP3RERXYX-Tvl6QipVqcFs_MRclPc4aYF3EB4vYp7saOnZzb8bG12p9P7ELZhIn4P2W9ZEwk9QApi8R216zeZH0QqCe4wyXZBOApI6tLIa1mZsEzAfucLxIw3CKK9bAzGg0cEMrfBqKuiLCtpXpuMea_MceobtPtVOm3Hnf1zaCfbmTr571aVrvlubjl83cLjTsaPRRDXiZ3XHlIuBecAo4VIiTtfy1iwbsh7RojjBwOaKqh_tRGXSPmKj83BLCSOYeRPvWgj6AbpCkPYrmazTi1CKgsEG6GyIkGEB6UGUf3RKTDmbiK_7-Mg7E2QHpkFZ3zG34HgTKe3zY2s-wqW4iS_14waAhDIgBX-Im4F54osR1Z8GNeQ-1q5KIjtvncyZTpcVBjVlu_ksiKvNe4PXQ__BouVdbbkwUkvm-Tz5hoe_Pxky-EhCrUCxzOiFU3orTBu1]--></g></svg>

<svg xmlns="http://www.w3.org/2000/svg" width="982" height="451" viewBox="0 0 982 451"><rect width="276" height="39.789" x="270.8" y="306.37" fill="#3D176E" rx="2.5" ry="2.5" style="stroke:#000d19;stroke-width:.5"/><circle cx="285.8" cy="326.264" r="11" fill="#ADD1B2" style="stroke:#181818;stroke-width:1"/><path d="M288.769 331.905q-.578.297-1.219.438-.64.156-1.344.156-2.5 0-3.828-1.64-1.312-1.657-1.312-4.782t1.312-4.781q1.328-1.656 3.828-1.656.703 0 1.344.156.656.156 1.219.453v2.719q-.625-.579-1.219-.844-.594-.281-1.219-.281-1.344 0-2.031 1.078-.687 1.062-.687 3.156t.687 3.172q.688 1.062 2.031 1.062.625 0 1.219-.265.594-.281 1.219-.86z"/><text x="304.8" y="332.15" fill="#D9B8FF" font-family="Helvetica" font-size="17" textLength="234">aws_apigateway_authorizer</text><rect width="290" height="39.789" x="87.8" y="206.58" fill="#3D176E" rx="2.5" ry="2.5" style="stroke:#000d19;stroke-width:.5"/><circle cx="102.8" cy="226.475" r="11" fill="#ADD1B2" style="stroke:#181818;stroke-width:1"/><path d="M105.769 232.115q-.578.297-1.219.438-.64.156-1.344.156-2.5 0-3.828-1.64-1.312-1.657-1.312-4.782t1.312-4.781q1.328-1.656 3.828-1.656.703 0 1.344.156.656.156 1.219.453v2.719q-.625-.578-1.219-.844-.594-.281-1.219-.281-1.344 0-2.031 1.078-.687 1.062-.687 3.156t.687 3.172q.688 1.062 2.031 1.062.625 0 1.219-.265.594-.281 1.219-.86z"/><text x="121.8" y="232.36" fill="#D9B8FF" font-family="Helvetica" font-size="17" textLength="248">aws_apigateway_deployment</text><rect width="261" height="39.789" x="413.3" y="206.58" fill="#3D176E" rx="2.5" ry="2.5" style="stroke:#000d19;stroke-width:.5"/><circle cx="428.3" cy="226.475" r="11" fill="#ADD1B2" style="stroke:#181818;stroke-width:1"/><path d="M431.269 232.115q-.578.297-1.219.438-.64.156-1.344.156-2.5 0-3.828-1.64-1.312-1.657-1.312-4.782t1.312-4.781q1.328-1.656 3.828-1.656.703 0 1.344.156.656.156 1.219.453v2.719q-.625-.578-1.219-.844-.594-.281-1.219-.281-1.344 0-2.031 1.078-.687 1.062-.687 3.156t.687 3.172q.688 1.062 2.031 1.062.625 0 1.219-.265.594-.281 1.219-.86z"/><text x="447.3" y="232.36" fill="#D9B8FF" font-family="Helvetica" font-size="17" textLength="219">aws_apigateway_resource</text><rect width="256" height="39.789" x="415.8" y="106.79" fill="#3D176E" rx="2.5" ry="2.5" style="stroke:#000d19;stroke-width:.5"/><circle cx="430.8" cy="126.684" r="11" fill="#ADD1B2" style="stroke:#181818;stroke-width:1"/><path d="M433.769 132.325q-.578.297-1.219.438-.64.156-1.344.156-2.5 0-3.828-1.64-1.312-1.657-1.312-4.782t1.312-4.781q1.328-1.656 3.828-1.656.703 0 1.344.156.656.156 1.219.453v2.719q-.625-.579-1.219-.844-.594-.281-1.219-.281-1.344 0-2.031 1.078-.687 1.062-.687 3.156t.687 3.172q.688 1.062 2.031 1.062.625 0 1.219-.265.594-.281 1.219-.86z"/><text x="449.8" y="132.57" fill="#D9B8FF" font-family="Helvetica" font-size="17" textLength="214">aws_apigateway_rest_api</text><rect width="224" height="39.789" x="487.8" y="406.16" fill="#3D176E" rx="2.5" ry="2.5" style="stroke:#000d19;stroke-width:.5"/><circle cx="502.8" cy="426.055" r="11" fill="#ADD1B2" style="stroke:#181818;stroke-width:1"/><path d="M505.769 431.695q-.578.297-1.219.438-.64.156-1.344.156-2.5 0-3.828-1.64-1.312-1.657-1.312-4.782t1.312-4.781q1.328-1.656 3.828-1.656.703 0 1.344.156.656.156 1.219.453v2.719q-.625-.578-1.219-.844-.594-.281-1.219-.281-1.344 0-2.031 1.078-.687 1.062-.687 3.156t.687 3.172q.688 1.062 2.031 1.062.625 0 1.219-.265.594-.281 1.219-.86z"/><text x="521.8" y="431.94" fill="#D9B8FF" font-family="Helvetica" font-size="17" textLength="182">aws_lambda_function</text><rect width="195" height="39.789" x="780.3" y="206.58" fill="#3D176E" rx="2.5" ry="2.5" style="stroke:#000d19;stroke-width:.5"/><circle cx="795.3" cy="226.475" r="11" fill="#ADD1B2" style="stroke:#181818;stroke-width:1"/><path d="M798.269 232.115q-.578.297-1.219.438-.64.156-1.344.156-2.5 0-3.828-1.64-1.312-1.657-1.312-4.782t1.312-4.781q1.328-1.656 3.828-1.656.703 0 1.344.156.656.156 1.219.453v2.719q-.625-.578-1.219-.844-.594-.281-1.219-.281-1.344 0-2.031 1.078-.687 1.062-.687 3.156t.687 3.172q.688 1.062 2.031 1.062.625 0 1.219-.265.594-.281 1.219-.86z"/><text x="814.3" y="232.36" fill="#D9B8FF" font-family="Helvetica" font-size="17" textLength="153">aws_vpc_endpoint</text><rect width="191" height="39.789" x="448.3" y="7" fill="#3D176E" rx="2.5" ry="2.5" style="stroke:#000d19;stroke-width:.5"/><circle cx="463.3" cy="26.895" r="11" fill="#ADD1B2" style="stroke:#181818;stroke-width:1"/><path d="M466.269 32.535q-.578.297-1.219.438-.64.156-1.344.156-2.5 0-3.828-1.64-1.312-1.657-1.312-4.782t1.312-4.781q1.328-1.656 3.828-1.656.703 0 1.344.156.656.156 1.219.453v2.719q-.625-.578-1.219-.844-.594-.281-1.219-.281-1.344 0-2.031 1.078-.687 1.062-.687 3.156t.687 3.172q.688 1.062 2.031 1.062.625 0 1.219-.265.594-.281 1.219-.86z"/><text x="482.3" y="32.78" fill="#D9B8FF" font-family="Helvetica" font-size="17" textLength="149">aws_waf_web_acl</text><path fill="none" d="M446.53 346.59c33.49 17.14 76.81 39.315 110.27 56.455" style="stroke:#1a83af;stroke-width:2"/><path fill="#1A83AF" d="m562.14 405.78-6.187-7.663 1.737 5.383-5.384 1.737z" style="stroke:#1a83af;stroke-width:2"/><path fill="none" d="M517.12 246.8c-23.66 17.14-53.202 38.529-76.852 55.669" style="stroke:#1a83af;stroke-width:2"/><path fill="#1A83AF" d="m435.41 305.99 9.635-2.043-5.586-.891.891-5.586z" style="stroke:#1a83af;stroke-width:2"/><path fill="none" d="M549.27 246.78c10.7 37.77 32.674 115.287 43.394 153.117" style="stroke:#1a83af;stroke-width:2"/><path fill="#1A83AF" d="m594.3 405.67 1.395-9.75-2.758 4.94-4.94-2.759z" style="stroke:#1a83af;stroke-width:2"/><path fill="none" d="M415.51 130.99c-124.92 6.25-302.17 24.2-345.71 75.59C6 281.87 144.641 308.927 264.381 318.997" style="stroke:#1a83af;stroke-width:2"/><path fill="#1A83AF" d="m270.36 319.5-8.633-4.74 3.65 4.321-4.32 3.65z" style="stroke:#1a83af;stroke-width:2"/><path fill="none" d="M482.35 147.01c-54.43 17.11-127.776 40.17-182.246 57.3" style="stroke:#1a83af;stroke-width:2"/><path fill="#1A83AF" d="m294.38 206.11 9.786 1.116-5.016-2.616 2.615-5.016z" style="stroke:#1a83af;stroke-width:2"/><path fill="none" d="M543.8 147.01v53.19" style="stroke:#1a83af;stroke-width:2"/><path fill="#1A83AF" d="m543.8 206.2 4-9-4 4-4-4z" style="stroke:#1a83af;stroke-width:2"/><path fill="none" d="M613.35 146.99c29.6 12.04 61.21 30.88 78.45 59.59 41.4 68.99-29.913 155.712-67.903 194.892" style="stroke:#1a83af;stroke-width:2"/><path fill="#1A83AF" d="m619.72 405.78 9.137-3.677-5.656.087-.088-5.656z" style="stroke:#1a83af;stroke-width:2"/><path fill="none" d="M609.78 147.01c58.46 17.11 137.622 40.284 196.122 57.414" style="stroke:#1a83af;stroke-width:2"/><path fill="#1A83AF" d="m811.66 206.11-7.513-6.368 2.714 4.963-4.962 2.715z" style="stroke:#1a83af;stroke-width:2"/><path fill="none" d="M543.8 47.22v53.19" style="stroke:#1a83af;stroke-width:2"/><path fill="#1A83AF" d="m543.8 106.41 4-9-4 4-4-4z" style="stroke:#1a83af;stroke-width:2"/></svg>
